X: 18
T:Connie Walsh's Slide
T:Cúil Aodha Slide, The
M:12/8
L:1/8
R:Slide
K:D
Bcd Bcd c2B A2A|Bcd e2f g3 f2g|
a2f gfe f2d A2A|Bcd e2c d3 d2A:|
a2f gfe f2d A2A|Bcd e2f g3 gfg|
agf gfe f2d A2A|Bcd e2c d3 d3:|

